X: 971
T: Hasret-i Rûyinle Giryân
C: Gevrekzâde Mustafa Ağa
O: Turkey
F: http://compmusic.upf.edu/node/140
N: hicaz-humayun--murabba--agircenber--hasret-i_ruyinle--gevrekzade_mustafa_aga
N: makam= hicaz-humayun
N: form= murabba
N: usul= agircenber = 24/2
M: 24/2
L: 1/16
K: C _7/8B ^c  
Q: 1/4=20.25
%%MIDI tuningsystem comma53
d8 c2d2e2d2 d6d2 z2G4G2 d4c2d2 c2d2e2f2 e2d2e2d2 c2d2cBc2  | 
w:   | 
BAB4z4B2c2B4c4d6c2e2 d2c2d4 z4d2e2 d4e4 e2f2e2d2  | 
w:   | 
z2f2e2f2 e2d6 d6e2 dccBc2BA B4z4 d4d4 f2e2d2c4e2d2c2  | 
w:   | 
B4d2c2 B2A2c2B2 A2A6 d2c2d2e2 d2d6 d2z2G4 G2d8c2d2e2  | 
w:   | 
d2d8d4z4e4g2 f2e2d4 f2e2d2c4e2d2c2 B4e2dc c8  | 
w:   | 
c2d2c2d2 dcBAB4 z2e2d2d2 e2d3cB2 c2B2c2d2 e2dcc12 z4G8A8c2B2 A2B4z2 d2c2d2c2 _1/4B2^A2B2A2 B2=c2d2cB B6B4z4G4=A2_7/8B4 A2B2A2e2 d2^c2c2B2 c2B2A2A8z4A2_1/4B2=c8_7/8d2 cdc2B2d2  | 
w:   | 
=c2_1/4B2c4 z4c2d2 ^c4d4 d2e2dc_7/8BA B2z2d4 d2d8d6 e2dcc2B4A2z2cd e2dcz2B6B6c2BAA8z4z4d8c2 d2e2d2d6d2z2 G4G2d4c2d2c2 d2e2f2e2 d2e2d2c2 d2cBc2BA B4z4 B2c2B4  | 
w:   | 
c4d6c2e2d2 c2d4z4d2e2d4e4e2 f2e2d2z2 f2e2f2e2 d6d6e2dc cBc2BAB4z4d4d4f2 e2d2c4 e2d2c2B4d2c2B2 A2c2B2A2  | 
w:   | 
A6d2 c2d2e2d2 d6d2 z2G4G2 d8 c2d2e2d2 d8 d4z4  | \
w:   | 
e4g2f2 e2d4f2 e2d2c4 e2d2c2B4e2dcc8c2 d2c2d2dc BAB4z2  | 
w:   | 
e2d2d2e2 d3cB2c2 B2c2d2e2 dcc12z4G8A8c2B2A2  | 
w:   | 
B4z2d2 c2d2c2_1/4B2 ^A2B2A2B2 =c2d2cBB6B4 z4G4 =A2_7/8B4A2 B2A2e2d2  | 
w:   | 
c2c2B2c2 B2A2A8z4 A2_1/4B2=c8_7/8d2cd c2B2d2c2 B2c4z4c2=d2^c4d4d2 e2dc_7/8BAB2 z2d4d2 d8 d6e2 dcc2B4 A2z2cde2 dcz2B6B6 c2BAA8z4 z4d4 e4e8e6e2z2d4e2e4  | 
w:   | 
d2e2d2e2 ^f2g2g2f2 g2f2e2g2 fee4z4d2e2d4e4e6d2e3d=c4z4d2e2d4e2=f2e2 d2c2_1/4B2z2 cdc2d2de d2c2B2B2 d2c2B2A2 A8 z4e4  | 
w:   | 
=c4e2d2 c2d4g2 ^f2e2f2g6g4 f4g6a2gff3ed4z2 d2^c2d2e3da2^ga=b2 a2g2^1/4f4 g2fee8z4 c2d2e2^f2 =g4g6f2f3e d4z4  | 
w:   | 
c2d2e4 f4f3e d2c2z2f2 e2f2e2d4c2B2c2 d2e2dcc12z4G8A8c2 B2A2B4 z2d2c2d2 c2_1/4B2^A2B2 A2B2=c2d2 cBB6 B2z2G4  | 
w:   | 
A2B4A2 B2A2e2d2 c2c2B2c2 B2A2A8z4 A2_1/4B2=c8_7/8d2cd c2B2d2c2  | 
w:   | 
_1/4B2=c4z4c2d2^c4d4d2 e2dc_7/8BAB2 z2d4d2 d8 d6e2 dcc2B4  | 
w:   | 
A2z2cde2 dcz2B6B6 c2BAA8z4 z4d8c2d2 e2d2d6d2z2G4G2d4 c2d2c2d2 e2f2e2d2 e2d2c2d2 cBc2BAB4z4B2 c2B4c4d6 c2e2d2c2 d4z4 d2e2d4 e4e2f2 e2d2z2f2 e2f2e2d6d6e2dccB c2BAB4 z4d4 d4f2e2 d2c4e2 d2c2B4 d2c2B2A2 c2B2A2A6d2c2 d2e2d2d6d2z2 G4G2d8c2 d2e2d2d8d4z4e4g2f2e2 d4f2e2 d2c4e2 d2c2B4 e2dcc8c2d2 c2d2dcBA B4z2e2  | 
w:   | 
d2d2e2d3cB2c2B2 c2d2e2dc c12z4 G8 A8 c2B2A2B4z2d2c2 d2c2_1/4B2^A2 B2A2B2=c2 d2cBB6B4z4G4=A2 _7/8B4A2B2 A2e2d2^c2  | 
w:   | 
c2B2c2B2 A2A8z4A2 _1/4B2=c8_7/8d2cdc2 B2d2c2B2 c4z4 c2=d2^c4  | 
w:   | 
d4d2e2 dcBAB2z2 d4d2d8d6e2dc c2B4A2 z2cde2dc z2B6  | 
w:   | 
B6c2 BAA8z4z4d8c2d2e2 d2d6 d2z2G4 G2d4c2  | \
w:   | 
d2c2d2e2 f2e2d2e2 d2c2d2cB c2BAB4 z4B2c2 B4c4 d6c2 e2d2c2d4z4d2 e2d4e4e2f2e2 d2z2f2e2 f2e2d6d6 e2dccBc2 BAB4z4d4d4f2e2d2 c4e2d2 c2B4d2 c2B2A2c2 B2A2A6d2c2d2 e2d2d6d2z2G4G2d8c2d2 e2d2d8d4 z4e4 g2f2e2d4f2e2d2  | 
w:   | 
c4e2d2 c2B4e2 dcc8c2d2c2 d2dcBAB4z2e2d2 d2e2d3c B2c2B2c2  | 
w:   | 
d2e2dcc12z4G8A8c2 B2A2B4 z2d2c2d2 c2_1/4B2^A2B2  | \
w:   | 
^A2_1/4B2=c2d2 cBB6 B4z4 G4=A2_7/8B4A2B2A2 e2d2^c2c2 B2c2B2A2 A8  | 
w:   | 
z4A2_1/4B2 =c8 _7/8d2cdc2B2 d2c2B2c4z4c2 =d2^c4d4d2e2dc _7/8BAB2z2d4d2d8d6e2dcc2 B4A2z2 cde2dcz2 B6B6c2BA A8  | 
w:   | 
z4z4 d4e4 e8 e6e2 z2d4e2 e4d2e2 d2e2^f2g2 g2f2g2f2  | 
w:   | 
e2g2^fee4z4d2 e2d4e4e6 d2e3d=c4z4d2 e2d4e2 =f2e2d2c2  | 
w:   | 
_1/4B2z2=cdc2 d2ded2c2 B2B2d2c2 B2A2A8z4 e4c4 e2d2c2d4g2^f2e2  | 
w:   | 
^f2g6 g4f4 g6a2 gff3ed4z2d2c2 d2e3da2 ^ga=b2a2g2 ^1/4f4g2fe  | 
w:   | 
e8 z4c2d2 e2^f2g4 g6f2 f3ed4 z4c2d2 e4=f4 f3ed2c2  | 
w:   | 
z2f2e2f2 e2d4c2 B2c2d2e2 dcc12z4G8A8c2B2A2  | \
w:   | 
B4z2d2 c2d2c2_1/4B2 ^A2B2A2B2 =c2d2cBB6B2z2 G4=A2_7/8B4A2B2A2 e2d2^c2c2  | 
w:   | 
B2c2B2A2 A8 z4A2_1/4B2 =c8 _7/8d2cdc2B2 d2c2B2c4z4c2 =d2^c4d4d2e2dc _7/8BAB2z2d4d2d8d6e2dcc2 B4A2z2 cde2dcz2 B6B6c2BA A8 z4z4 |
w:   | 


